**kern	**text
*clefG2	*
*k[f#]	*
*M4/4	*
*MM147	*
=1	=1
1r	.
=2	=2
1r	.
=3	=3
1r	.
=4	=4
1r	.
=5	=5
1r	.
=6	=6
1r	.
=7	=7
1r	.
=8	=8
8BL	- は
8A	a あ
8B	a な
8eJ	a れ
4f#'	e ば
8BL	- な
8eJ	a れ
=9	=9
4f#'	e の
8eL	- ま
8f#J	a ち
4g'	i お
8eL	- つ
8bJ	u な
=10	=10
4a'	a ぐ
4g'	- れ
8f#L	- しゃ
8e	a あ
8e	- わ
8ddJ	a い
=11	=11
8r	.
8ddL	- て
8dd	e し
8ddJ	i ま
8r	.
8b	- た
4b'	a ね
=12	=12
8BL	- な
8A	a あ
8B	a く
8eJ	u し
4f#'	i た
8BL	- こ
8eJ	o と
=13	=13
16.f#LL	o ば
[32f#L	a お
64f#JJJk]	.
64r	.
32r	.
16r	.
8eL	- し
8f#J	i ら
8gL	a な
8g'	a い
8dd	- な
8bJ	a ら
=14	=14
8r	.
8b	- ぽ
4a'	o け
8g	- と
4f#	o で
8e	- に
=15	=15
4f#'	i ぎ
4f#'	- り
8f#L	- し
8eJ	i め
4e'	e て
=16	=16
8BL	- あ
8A	a あ
8B	a が
8eJ	a い
4f#'	i た
8BL	- い
8eJ	i き
=17	=17
4f#'	i お
8eL	- す
8f#J	u て
4g'	e て
8eL	- の
8bJ	o び
=18	=18
4a'	i る
8gL	- きょ
8f#J	o お
8f#L	o わ
8e	a あ
8e	a ね
8ddJ	e む
=19	=19
8r	.
8ddL	- て
8dd	e ご
8ddJ	o ま
8r	.
8b	- か
4b'	a せ
=20	=20
8BL	- な
8A	a あ
8B	a く
8eJ	u し
4f#'	i た
8BL	- こ
8eJ	o と
=21	=21
[16.f#LL	o ば
64f#LL]	.
[64f#J	a お
32f#JJJ]	.
32r	.
16r	.
8BL	- し
8ddJ	i ら
8ddL	a な
8dd'	a い
8dd	- な
8bJ	a ら
=22	=22
8r	.
8b	- か
4a'	a く
8gL	- え
8f#J	e き
8r	.
8e	- て
=23	=23
8f#L	e い
8f#	i しゃ
8f#	a に
8eJ	i の
4f#'	o り
8gL	- こ
8eJ	o ん
=24	=24
8eL	n で
8eJ	e R
4r	.
2r	.
=25	=25
1r	.
=26	=26
1r	.
=27	=27
1r	.
=28	=28
1r	.
=29	=29
1r	.
=30	=30
1r	.
=31	=31
1r	.
=32	=32
4B	- ゆ
8BL	u が
8dJ	a た
4d	a と
4r	.
=33	=33
4r	.
8r	.
8d	- た
8dL	a い
8d	i く
8e	u つ
8dJ	u の
*clefF4	*
=34	=34
4B'	o お
4B'	- さ
8BL	- そ
8d	o い
8d	i お
8AJ	o こ
=35	=35
8AL	o と
8AJ	o わ
8r	.
8B	- て
4B'	e R
4r	.
=36	=36
8BL	- ひ
8B	i と
8B	o り
8dJ	i き
4d'	i り
4r	.
=37	=37
4r	.
8r	.
*clefG2	*
8d	- ろ
8dL	o じ
8d	i う
8e	u ら
8dJ	a わ
=38	=38
4e'	a け
8dL	- し
8dJ	i て
8eL	e い
8dJ	i そ
8r	.
8e	- が
=39	=39
8r	.
8bL	- な
8b	a い
8eJ	i で
4r	.
8f#L	- ほ
8gJ	o ら
=40	=40
4r	.
8f#L	- お
8f#J	o お
4r	.
8eL	- だ
8bJ	a ん
=41	=41
4r	.
8f#L	- ほ
[8f#J	o ど
8f#L]	.
8eJ	o も
8r	.
8b	- ま
=42	=42
4r	.
16f#LL	- て
16f#J	e く
8f#J	u れ
4r	.
8eL	- と
8eJ	o い
=43	=43
8r	.
8f#	- て
4f#'	e る
4r	.
8eL	- み
8bJ	i は
=44	=44
4r	.
8f#L	- る
8f#J	u ま
4r	.
8eL	- ち
8bJ	i か
=45	=45
4r	.
8f#L	- ど
8f#J	o が
4r	.
8eL	- あ
8bJ	a な
=46	=46
4r	.
8f#L	- た
8f#J	a お
4r	.
8BL	- ひ
8f#J	i き
=47	=47
8r	.
8f#	- と
8r	.
8f#	- め
8r	.
8f#	- て
4f#'	e く
=48	=48
8BL	- は
8A	a あ
8B	a な
8eJ	a れ
4f#'	e ば
8BL	- な
8eJ	a れ
=49	=49
4f#'	e の
8eL	- ま
8f#J	a ち
4g'	i お
8eL	- つ
8bJ	u な
=50	=50
4a'	a ぐ
4g'	- れ
8f#L	- しゃ
8e	a あ
8e	- わ
8ddJ	a い
=51	=51
8r	.
8ddL	- て
8dd	e し
8ddJ	i ま
8r	.
8b	- た
4b'	a ね
=52	=52
8BL	- な
8A	a あ
8B	a く
8eJ	u し
4f#'	i た
8BL	- こ
8eJ	o と
=53	=53
16.f#LL	o ば
[32f#L	a お
64f#JJJk]	.
64r	.
32r	.
16r	.
8BL	- し
8ddJ	i ら
8ddL	a な
8dd'	a い
8dd	- な
8bJ	a ら
=54	=54
8r	.
8b	- ぽ
4a'	o け
8g	- と
4f#	o で
8e	- に
=55	=55
4f#'	i ぎ
4f#'	- り
8f#L	- し
8e	i め
8e	e て
8f#J	e え
=56	=56
8bL	e あ
8e	a あ
8b	- が
8aJ	- い
4a'	i た
8f#L	- ゆ
8f#J	u め
=57	=57
8f#L	e お
8g	o お
8f#	- す
8eJ	u て
4B'	e て
8eL	- ゆ
8bJ	u れ
=58	=58
4a'	e る
8gL	- きょ
8f#J	o お
8f#L	o わ
8e	a あ
8e	a ね
8ddJ	e む
=59	=59
8r	.
8ddL	- て
8dd	e ご
8ddJ	o ま
8r	.
8b	- か
4b'	a せ
=60	=60
8BL	- な
8A	a あ
8B	a く
8eJ	u し
4f#'	i た
8BL	- こ
8eJ	o と
=61	=61
16.f#LL	o ば
[32f#L	a お
64f#JJJk]	.
64r	.
32r	.
16r	.
8BL	- し
8ddJ	i ら
8ddL	a な
8dd'	a い
8dd	- な
8bJ	a ら
=62	=62
8r	.
8b	- か
4a'	a く
8gL	- え
8f#J	e き
8r	.
8e	- て
=63	=63
8f#L	e い
8f#	i しゃ
8f#	a に
8eJ	i の
4f#'	o り
8gL	- こ
8eJ	o ん
=64	=64
8eL	n で
8eJ	e R
4r	.
2r	.
=65	=65
1r	.
=66	=66
1r	.
=67	=67
1r	.
=68	=68
1r	.
=69	=69
1r	.
=70	=70
1r	.
=71	=71
1r	.
*clefF4	*
=72	=72
8BL	- ゆ
8B	u う
8B	u が
8dJ	a た
4d'	a の
4r	.
=73	=73
4r	.
8r	.
*clefG2	*
8d	- え
8dL	e き
8d	i の
8e	o ほ
8dJ	o お
*clefF4	*
=74	=74
4B'	o む
4B'	- わ
8BL	- ひ
8d	i ど
8d'	o く
8AJ	- こ
=75	=75
8AL	o み
8AJ	i あ
8r	.
8B	- て
4B'	e R
4r	.
=76	=76
8BL	- ひ
8B	i と
8B	o り
8dJ	i じ
4d'	i め
4r	.
=77	=77
4r	.
8r	.
*clefG2	*
8d	- で
8dL	e き
8d	i る
8e	u ま
8dJ	a で
=78	=78
4e'	e きゅ
8dL	- け
8d'J	e い
8eL	- し
8d	i て
8d	e ほ
8eJ	o し
=79	=79
8r	.
8b	- く
8r	.
8b	- て
4r	.
8f#L	- ま
8gJ	a た
=80	=80
4r	.
8f#L	- しゅ
8f#J	u う
4r	.
8eL	- だ
8bJ	a ん
=81	=81
4r	.
8f#L	- げ
[8f#J	e こ
8f#L]	.
[8eJ	- が
12e]	.
6e	a R
=82	=82
1r	.
=83	=83
2r	.
4r	.
8BL	- あ
8bJ	a な
=84	=84
4r	.
8f#L	- た
8f#J	a お
4r	.
8eL	- せ
8bJ	e か
=85	=85
*^	*
4r	2r	.
8f#L	.	- し
8f#J	.	i て
6f#	8r	e い
.	4.B'	i る
6r	.	.
6B	.	u R
*v	*v	*
=86	=86
1r	.
=87	=87
2r	.
4r	.
8f#L	- ほ
8gJ	o ら
=88	=88
4r	.
8f#L	- じ
8f#J	i ど
4r	.
8eL	- か
8bJ	a い
=89	=89
4r	.
8f#L	- さ
8f#J	a つ
8r	.
8e	- わ
8r	.
8b	- ま
=90	=90
4r	.
16f#LL	- て
16f#J	e く
8f#J	u れ
4r	.
8eL	- と
8eJ	o い
=91	=91
8r	.
8f#	- て
4f#'	e る
4r	.
8eL	- ふ
8bJ	u さ
=92	=92
4r	.
8f#L	- が
8f#J	a る
4r	.
8eL	- りょ
8bJ	o お
=93	=93
4r	.
8f#L	- て
8f#J	e が
4r	.
8eL	- あ
8bJ	a な
=94	=94
4r	.
8f#L	- た
8f#J	a お
4r	.
8BL	- ひ
8f#J	i き
=95	=95
8r	.
8f#	- と
8r	.
8f#	- め
8r	.
8f#	- て
4f#'	e く
=96	=96
8bL	- あ
8e	a あ
8b	- が
8aJ	- い
4a'	i た
8f#L	- ゆ
8f#J	u め
=97	=97
8f#L	e お
8g	o お
8f#	o す
8eJ	u て
4B'	e て
8eL	- ゆ
8bJ	u れ
=98	=98
4a'	e る
8gL	- きょ
8f#J	o お
8f#L	o わ
8e	a あ
8e	a ね
8ddJ	e む
=99	=99
8r	.
8ddL	- て
8dd	e ご
8ddJ	o ま
8r	.
8b	- か
4b'	a せ
=100	=100
8BL	- な
8A	a あ
8B	a く
8eJ	u し
4f#'	i た
8BL	- こ
8eJ	o と
=101	=101
16.f#LL	o ば
[32f#L	a お
64f#JJJk]	.
64r	.
32r	.
16r	.
8BL	- し
8ddJ	i ら
8ddL	a な
8dd'	a い
8dd	- な
8bJ	a ら
=102	=102
8r	.
8b	- か
4a'	a く
8gL	- え
8f#J	e き
8r	.
8e	- て
=103	=103
8f#L	e い
8f#	i しゃ
8f#	a に
8eJ	i の
4f#'	o り
8gL	- こ
8eJ	o ん
=104	=104
4B	n で
4B'	e R
2r	.
=105	=105
1r	.
=106	=106
1r	.
=107	=107
1r	.
=108	=108
1r	.
=109	=109
1r	.
=110	=110
1r	.
=111	=111
1r	.
=112	=112
4r	.
8BL	- は
8BJ	a な
4r	.
8f#L	- れ
8f#J	e た
=113	=113
4r	.
8f#L	- ま
8f#J	a ち
4r	.
8f#L	- と
8f#J	o ま
=114	=114
4r	.
8bL	- ち
8f#J	i お
4r	.
8bL	- つ
8f#J	u な
=115	=115
4r	.
8f#L	- ぐ
8f#J	u れ
8r	.
8BL	- しゃ
8B	a が
8AJ	a あ
=116	=116
4r	.
8BL	- よ
8AJ	o ん
4r	.
8f#L	- だ
8f#J	a か
=117	=117
4r	.
8gL	- ぜ
8f#J	e に
4r	.
8bL	- と
8f#J	o ば
=118	=118
4r	.
8bL	- さ
8f#J	a れ
4r	.
8f#L	- な
8f#J	a い
=119	=119
4r	.
16.f#LL	- で
32f#JK	e い
8f#J	i て
8r	.
8g	- く
4f#'	u れ
=120	=120
4r	.
8eL	- な
8eJ	a く
4r	.
8bL	- し
8bJ	i た
=121	=121
4r	.
8bL	- こ
8bJ	o と
4r	.
8bL	- ば
8f#J	a わ
=122	=122
4r	.
8gL	- そ
8BJ	o の
4r	.
8gL	- ま
8BJ	a ま
=123	=123
4r	.
8gL	- で
8f#J	e い
8r	.
*clefF4	*
8BL	- い
8B	i よ
8AJ	o お
=124	=124
4r	.
8BL	- ゆ
8BJ	u れ
4r	.
8BL	- る
8BJ	u れ
=125	=125
4r	.
*clefG2	*
8gL	- しゃ
8BJ	a に
4r	.
8BL	- み
8aJ	i お
=126	=126
4r	.
8aL	- ま
8aJ	a か
4r	.
8aL	- せ
8aJ	e て
=127	=127
8r	.
8a	- ほ
8r	.
8a	- し
8r	.
8g	- か
4f#'	a ら
=128	=128
8bL	- は
8e	a あ
8b	a な
8aJ	a れ
4a'	e ば
8gL	- な
8f#J	a れ
=129	=129
4g'	e の
8f#L	- ま
8eJ	a ち
2B	i お
=130	=130
8ccL	- は
8fn	a あ
8cc	a な
8b-XJ	a れ
4b-'	e ば
8gL	- な
8gJ	a れ
=131	=131
8gL	e の
8g#X	o お
8gn	- ま
8fnJ	a ち
4c'	i お
8fL	- つ
8ccJ	u な
=132	=132
4b-X'	a ぐ
4g#X'	- れ
8gnL	- しゃ
8fn	a あ
8f	- わ
8dd#XJ	a い
=133	=133
8r	.
8dd#XL	- て
8dd#	e し
8dd#J	i ま
8r	.
8cc	- た
4cc'	a ね
=134	=134
8cL	- な
8B-X	a あ
8c	a く
8fnJ	u し
4g'	i た
8cL	- こ
8fJ	o と
=135	=135
16.gLL	o ば
[32gL	a お
64gJJJk]	.
64r	.
32r	.
16r	.
8cL	- し
8dd#XJ	i ら
8dd#L	a な
8dd#'	a い
8dd#	- な
8ccJ	a ら
=136	=136
8r	.
8cc	- ぽ
4b-X'	o け
8g#X	- と
4gn	o で
8fn	- に
=137	=137
4g'	i ぎ
4g'	- り
8gL	- し
8fn	i め
8f	e て
8gJ	e え
=138	=138
8ccL	e あ
8fn	a あ
8cc	- が
8b-XJ	- い
4b-'	i た
8gL	- い
8gJ	i き
=139	=139
8gL	i お
8g#X	o お
8gn	- す
8fnJ	u て
4c'	e て
8fL	- の
8ccJ	o び
=140	=140
4b-X'	i る
8g#XL	- きょ
8gnJ	o お
8gL	o わ
8fn	a あ
8f	a ね
8dd#XJ	e む
=141	=141
8r	.
8dd#XL	- て
8dd#	e ご
8dd#J	o ま
8r	.
8cc	- か
4cc'	a せ
=142	=142
8cL	- な
8B-X	a あ
8c	a く
8fnJ	u し
4g'	i た
8cL	- こ
8fJ	o と
=143	=143
16.gLL	o ば
[32gL	a お
64gJJJk]	.
64r	.
32r	.
16r	.
8cL	- し
8dd#XJ	i ら
8dd#L	a な
8dd#'	a い
8dd#	- な
8ccJ	a ら
=144	=144
8r	.
8cc	- か
4b-X'	a く
8g#XL	- え
8gnJ	e き
8r	.
8fn	- て
=145	=145
8gL	e い
8g	i しゃ
8g	a で
8fnJ	e た
4g'	a び
8g#XL	- お
8fJ	o し
=146	=146
4fn	i て
4f'	e R
2r	.
==	==
*-	*-
